X: 22265
T: La Mar De Cuixo
R: slide
M: 12/8
K: Cmajor
c2 B A2 G EFG GEG|c2 B A2 G FGA AFA|
c2 B A2 G FFF AFA|cdc BcA EFG GEG:|
|:Acc BcA- A2 c BAG|AAA GAB BcA CGC|
Acc BcA- A2 c BAG|AAA FGA B2 A AGF|
EFG c2 G- GEE EFG|F2 E D2 C EFG A2 G|
EFG c2 G- GEE EFG|EFE D2 C EFG A2 B:|

